src/24/actions/insert-image.svg

<svg xmlns="http://www.w3.org/2000/svg" viewBox="0 0 24 24"><path d="M4 4v16h12l-3-3 3-3h2l-1-1-2-2-4 4-1-1-4.852 4.852L5 19V5h14v8h1V4H4zm4 2c-1.108 0-2 .892-2 2s.892 2 2 2 2-.892 2-2-.892-2-2-2zm9 9v2h-2v1h2v2h1v-2h2v-1h-2v-2h-1z" fill="currentColor" color="#5d656b"/></svg>

<svg xmlns="http://www.w3.org/2000/svg" viewBox="0 0 24 24">
  <defs id="defs3051">
    <style type="text/css" id="current-color-scheme">
      .ColorScheme-Text {
        color:#5d656b;
      }
      </style>
  </defs>
 <path style="fill:currentColor;fill-opacity:1;stroke:none" 
     d="M 4 4 L 4 5 L 4 20 L 5 20 L 16 20 L 13 17 L 16 14 L 18 14 L 17 13 L 15 11 L 11 15 L 10 14 L 5.1484375 18.851562 L 5 19 L 5 5 L 19 5 L 19 13 L 20 13 L 20 5 L 20 4 L 5 4 L 4 4 z M 8 6 C 6.892 6 6 6.892 6 8 C 6 9.108 6.892 10 8 10 C 9.108 10 10 9.108 10 8 C 10 6.892 9.108 6 8 6 z M 17 15 L 17 17 L 15 17 L 15 18 L 17 18 L 17 20 L 18 20 L 18 18 L 20 18 L 20 17 L 18 17 L 18 15 L 17 15 z "
     class="ColorScheme-Text"
     />
</svg>
